X:1
T:Rumores de la Caleta
T:A mi ilustre amigo el Excemo: Sr. General Lopez Dominguez
T:Rumores de la Caleta
T:Malagueña No. 6 from Recuerdos de viaje
T:Isaac Albéniz (1860-1909) Op. 71, No. 6
T:Mutopia - Pubblico dominio
T:Mutopia - Pubblico dominio
T:Mutopia - Pubblico dominio
T:Mutopia - Pubblico dominio
T:Mutopia - Pubblico dominio
T:Mutopia - Pubblico dominio
T:Mutopia - Pubblico dominio
C:Isaac Albéniz (1860-1909)
Z:Mutopia - Pubblico dominio
%%score { ( 1 4 ) | ( 2 3 ) }
L:1/8
Q:1/4=90
M:3/4
K:F
V:1 treble nm="Piano" snm="Pf."
V:4 treble 
V:2 bass 
V:3 bass 
V:1
!f![I:staff +1] (7:8:7(A,,/4E,/4A,/4[I:staff -1]^C/4E/4A/4^c/4 !fermata!a4) | %1
[M:3/8]!p! z (3(^C/E/A/.A,) | z/ .[B,D]/z/.[B,DE]/z/.[B,D]/ | z (3(^C/E/A/.A,) | %4
 .[B,D]/z/.[B,DE]/z/.[B,D]/ z/ | z (3(^C/E/A/.A,) |!<(! z .[B,D]!<)!!>(!.[DE]!>)! | %7
 z (3(^C/E/A/.A,) | z/ .[B,D]/z/.[B,DE]/z/.[B,D]/ | z (3(^C/E/A/.A,) |!<(! z .[B,D]!>(! z!<)!!>)! | %11
!<(! z .[B,D]!>(! z!<)!!>)! |!<(! z .[B,D]!>(! z!<)!!>)! | z (3(^C/E/A/.A,) | %14
!<(! z!<)! .[B,D].[DE] |!pp! z (3(^C/E/A/.A,) |!<(! z!<)! .[B,D].[DE] |!pp! z (3(^C/E/A/.A,) | %18
!<(! z .[B,DE].[DE] | z .[DE]!<)!.[DE] |!>(! z .[DE]!>)!.[DE] | z (3(^C/E/A/.A,) | z .[B,DE] z | %23
 z (3(^C/E/A/.A,) | z .[B,DE] z |"^Meno tempo" z (e(g |!<(! g)(f f/)(g/4f/4!<)! | e2)) (d/e/ | %28
 f2 g |!>(! (3f/g/f/!>)! e2) | (3(d/e/d/ cB) | z (3(^C/E/A/.A,) | z .[B,DE].[DE] | %33
 z (3(^C/E/A/.A,) | z [B,D] z | z (3(^C/E/A/.A,) |!<(! z .[B,DE].[DE] | z!<)! .[DE].[DE] | %38
!>(! z .[DE].[DE]!>)! | z (3(^C/E/A/.A,) |!<(! z!<)! [B,D]!>(! z!>)! |!<(! z!<)! [B,D]!>(! z!>)! | %42
!<(! z!<)! [B,D]!>(! z!>)! | z (e(g |!<(! g)(f f/)(g/4f/4!<)! | e2)) (d/e/ | f2 g | (3f/g/f/ e2) | %48
!>(! (3(d/e/d/!>)!cB) | z (3(^C/E/A/.A,) |!<(! z/ (^c/d/e/g/f/!<)! | (3f/g/f/ e2) | %52
!>(! (3(d/e/d/!>)!cB) | z (3(^C/E/A/.A,) |!<(! (^c/d/e/f/a/g/!<)! | (3e/f/e/ d2) | %56
!>(! (3(d/e/d/!>)! B/F/C/B,/) | z (3(^C/E/A/.A,) | z/ [B,D]/z/[B,DE]/z/[B,D]/ | z (3(^C/E/A/.A,) | %60
 z/ [B,D]/z/[B,DE]/z/[B,D]/ | z (3(^C/E/A/.A,) |!<(! z!<)! .[B,D]!>(!.[DE]!>)! | z (3(^C/E/A/.A,) | %64
 z/ .[B,D]/z/.[B,DE]/z/.[B,D]/ | z (3(^C/E/A/.A,) |"_dim." z [B,D] z |!<(! z!<)! .[B,D]!>(! z!>)! | %68
!<(! z!<)! .[B,D]!>(! z!>)! |[M:4/4][Q:1/4=60]"^Lento" z4 A2 (!arpeggio!a2 | %70
 !arpeggio!!fermata![ae'a']8) ||[M:3/8][Q:1/4=60]"^Lento"!ff! a2 g | Pa2 g | %73
 Pa z/4!>(! g/4a/4g/4 f/4d/4B/4!>)!G/4 |"^Tempo I°"[Q:3/8=40] F3- | F3 | cd/e/f- | %77
 f/[FA]/ z/4 _e/4f/4e/4 d/4e/4f/4e/4 | d3- | d3 |!>(! cd/!>)!e/f- | f/[EB]/ z/4 (e/4f/4e/4 d/c/ | %82
 f) z/4 (d/4e/4d/4 c/A/ | F3) |!mf! (c f2) | z z/ (e/4f/4 e/4d/4c/4d/4 | e2) (3(d/e/d/ | c3) | %88
 (cd/e/f- | f3/2 d/4e/4 d/c/ | d3/2 c/4d/4 c/A/ | F3) | (c!<(!d/e/f!<)! | f) !fermata!e2- | %94
"^Adagio"[Q:3/8=58] e z/ (f/4e/4 d/4e/4f/4g/4 Pf/) e/4d/4 (e/4f/4g/4f/4 e/4f/4d/4e/4) Pc/!f! (B/4A/4 B/4c/4B/4F/4 D/4C/4B,/4F,/4) | %95
!p! z (3(^C/E/A/.A,) | z/ .[B,D]/z/.[B,DE]/z/.[B,D]/ | z (3(^C/E/A/.A,) | %98
 z/ !^![B,D]/z/!^![B,DE]/z/!^![B,D]/ | z (3(^C/E/A/.A,) |!<(! z!<)! [B,D]!>(![DE]!>)! | %101
 z (3(^C/E/A/.A,) | z/ [B,D]/ z/ [B,DE]/ z/ [B,D]/ |!p! z (3(^C/E/A/.A,) | %104
!<(! z!<)! [B,D]!>(! z!>)! |!<(! z [B,D]!>(! z!<)!!>)! |!<(! z [B,D]!>(! z!<)!!>)! | %107
!pp! z (3(^C/E/A/.A,) | z .[B,D].[DE] | z (3(^C/E/A/.A,) | z .[B,D].[DE] | z (3(^C/E/A/.A,) | %112
!<(! z .[B,DE].[DE] | z .[DE]!<)!.[DE] | z .[DE].[DE] |!p! z (3(^C/E/A/.A,) | z [B,DE] z | %117
!p! z (3(^C/E/A/.A,) | z [B,DE] z | z"^Meno mosso" (e(g-) |!<(! gf3/2(g/4f/4!<)! | e2)) (d/e/ | %122
 f2 g | (3f/g/f/ e2) | (3(d/e/d/ cB) | z (3(^C/E/A/.A,) | z .[B,DE].[DE] | z (3(^C/E/A/.A,) | %128
!<(! z .[B,D]!>(! z!<)!!>)! | z (3(^C/E/A/.A,) |!<(! z .[B,DE].[DE]!<)! | z .[DE].[DE] | %132
!>(! z .[DE].[DE]!>)! | z (3(^C/E/A/.A,) |!<(! z [B,D]!>(! z!<)!!>)! |!<(! z [B,D]!>(! z!<)!!>)! | %136
!<(! z [B,D]!>(! z!<)!!>)! | z (e!<(!(g!<)! |!<(! g)(f f/)(g/4f/4!<)! |!<(! e2))!<)! (d/e/ | f2 g | %141
 (3f/g/f/ e2) |!>(! (3(d/e/d/!>)!cB) | z (3(^C/E/A/.A,) |!<(! z/ (^c/d/e/g/f/!<)! | (3f/g/f/ e2) | %146
!>(! (3(d/e/d/cB)!>)! | z (3(^C/E/A/.A,) |!<(! z/ (^c/d/e/g/f/!<)! | (3f/g/f/ e2) | %150
!>(! (3(d/e/d/!>)! B/F/C/B,/) | z (3(^C/E/A/.A,) | z/!p! [B,D]/z/[B,DE]/z/[B,D]/ | %153
 z (3((^C/E/A/.A,)) | z/ [B,D]/z/[B,DE]/z/[B,D]/ |!p! z (3((^C/E/A/.A,)) | %156
!<(! z!<)! .[B,D]!>(!.[DE]!>)! | z (3(^C/E/A/.A,) | z/ .[B,D]/z/.[B,DE]/z/.[B,D]/ | %159
 z (3(^C/E/A/.A,) | z .[B,D] z |!<(! z!<)! [B,D]!>(! z!>)! |!<(! z!<)! [B,D]!>(! z!>)! || %163
[M:4/4][Q:1/4=50]"^Lento" z4 A2 (!arpeggio!a2 | !arpeggio!!fermata![ae'a']8) |] %165
V:2
!ped! z6!ped-up! |[M:3/8] z"^melancòlico" E,2 | .F,/z/.G,/z/.E,/ z/ | z E,2 | .F,/z/.G,/z/.E,/ z/ | %5
!ped! z E,2!ped-up! | (3(D,/E,/F,/) (3(G,/A,/B,/) (3(C/B,/A,/) |!ped! z E,2!ped-up! | %8
 .F,/z/.G,/z/.E,/ z/ |!ped! z E,2!ped-up! | (3(D,/E,/F,/ (3G,/A,/B,/ (3C/B,/A,/) | %11
 (3(D,/E,/F,/"_dim." (3G,/A,/B,/ (3C/B,/A,/) | (3(D,/E,/F,/ (3G,/A,/B,/ (3C/B,/A,/) | %13
!ped! z E,2!ped-up! | .D,/.F,/.G,.B, |!ped! z E,2!ped-up! | .D,/.F,/.G,.B, |!ped! z E,2!ped-up! | %18
 .D,/.E,/.F,/.G,/.A,/.B,/ | .G,/.A,/.F,/.G,/.E,/.F,/ | .D,/.E,/.C,/.D,/.B,,/.C,/ | %21
!ped! z E,2!ped-up! | (F,2 .G,/).E,/ | z E,2 | (F,2 .G,/).E,/ | %25
!ped! A,,"^cantando"(3(E,/A,/^C/.E)!ped-up! |!ped! .A,,.[B,DE].E,!ped-up! | %27
!ped! A,,(3(E,/A,/^C/.E)!ped-up! | .A,,.[B,DE].E, |!ped! A,,(3(E,/A,/^C/.E)!ped-up! | %30
!ped! z B,D!ped-up! |!ped! z E,2!ped-up! | (.D,/.F,/.G,.B,) | z E,2 | %34
 (3(D,/E,/F,/ (3G,/A,/B,/ (3C/B,/A,/) |!ped! z E,2!ped-up! | .D,/.E,/.F,/.G,/.A,/.B,/ | %37
 .G,/.A,/.F,/.G,/.E,/.F,/ | .D,/.E,/.C,/.D,/.B,,/.C,/ |!ped! z E,2!ped-up! | %40
 (3(D,/E,/F,/ (3G,/A,/B,/ (3C/B,/A,/) | (3(D,/E,/F,/"_dim." (3G,/A,/B,/ (3C/B,/A,/) | %42
 (3(D,/E,/F,/ (3G,/A,/B,/ (3C/B,/A,/) | .A,,(3(E,/A,/^C/.E) | .A,,.B,.E, | A,,(3(E,/A,/^C/.E) | %46
 .A,,.[B,DG].E, |!ped! A,,(3(E,/A,/^C/.E)!ped-up! |!ped! z B,D!ped-up! |!ped! z E,2!ped-up! | %50
!ped! A,,.E,.B,!ped-up! |!ped! A,,(3(E,/A,/D/.F)!ped-up! |!ped! z B,D!ped-up! | %53
!ped! z E,2!ped-up! |!ped! A,,.E,.B,!ped-up! |!ped! A,,(3(E,/A,/D/.F)!ped-up! | (A,,D,F,) | %57
!ped! z E,2!ped-up! | .F,/z/.G,/z/.E,/ z/ |!ped! z E,2!ped-up! | .F,/z/.G,/z/.E,/ z/ | %61
!ped! z E,2!ped-up! | (3(D,/E,/F,/ (3G,/A,/B,/ (3C/B,/A,/) |!ped! z E,2!ped-up! | %64
 .F,/z/.G,/z/.E,/ z/ |!ped! z E,2!ped-up! | (3(D,/E,/F,/ (3G,/A,/B,/ (3C/B,/A,/) | %67
 (3(D,/E,/F,/ (3G,/A,/B,/ (3C/B,/A,/) | (3(D,/E,/F,/ (3G,/A,/B,/ (3C/B,/A,/) | %69
[M:4/4]!ped! (A,,2 E,2 ^C4 |[K:treble] !arpeggio!!fermata![Ae^c']8)!ped-up! || %71
[M:3/8][K:bass] z2 z | z2 z | z2 z |"^sempre"!ped! (F,,C,A,)!ped-up! |!ped! (F,,C,A,)!ped-up! | %76
!ped! (F,,C,A,)!ped-up! |!ped! (F,,C"^poco ritard."F)!ped-up! |"^tempo"!ped! (B,,F,D)!ped-up! | %79
!ped! (B,,F,"^rit."D)!ped-up! |!ped! (B,,F,D)!ped-up! |!ped! (C,G,"^rit."C)!ped-up! | %82
"^a tempo"!ped! (F,,C,A,)!ped-up! |!ped! (F,,C,A,)!ped-up! |!ped! (F,,C,A,)!ped-up! | %85
!ped! (F,,C,"^rit."A,)!ped-up! |"^a tempo"!ped! (C,,G,C)!ped-up! |!ped! (C,,G,C)!ped-up! | %88
!ped! (C,G,C)!ped-up! |!ped! (C,G,C)!ped-up! |!ped! (F,,C,A,)!ped-up! |!ped! (F,,C,A,)!ped-up! | %92
!ped! (B,,F,D)!ped-up! |"^riten."!ped! (G,,G,!arpeggio![E,B,DG])!ped-up! | %94
"^cadenza lento                                                           ad lib.                                                rit." x9 | %95
!ped! z"^melancòlico" E,2!ped-up! | .F,/z/.G,/z/.E,/ z/ |!ped! z E,2!ped-up! | %98
 .F,/z/.G,/z/.E,/ z/ |!ped! z E,2!ped-up! | (3(D,/E,/F,/ (3G,/A,/B,/ (3C/B,/A,/) | %101
!ped! z E,2!ped-up! | .F,/z/.G,/z/.E,/ z/ |!ped! z E,2!ped-up! | %104
 (3(D,/E,/F,/ (3G,/A,/B,/ (3C/B,/A,/) | (3(D,/E,/F,/ (3G,/A,/B,/ (3C/B,/A,/) | %106
 (3(D,/E,/F,/ (3G,/A,/B,/ (3C/B,/A,/) |!ped! z E,2!ped-up! | .D,/.F,/.G,.B, |!ped! z E,2!ped-up! | %110
 .D,/.F,/.G,.B, |!ped! z E,2!ped-up! | .D,/.E,/.F,/.G,/.A,/.B,/ | .G,/.A,/.F,/.G,/.E,/.F,/ | %114
 .D,/.E,/.C,/.D,/.B,,/.C,/ |!ped! z E,2!ped-up! |!ped! F,2 G,/E,/!ped-up! |!ped! z E,2!ped-up! | %118
 (F,2 .G,/).E,/ |"^cantando"!ped! A,,(3(E,/A,/^C/E)!ped-up! | .A,,.[B,DE].E, | %121
!ped! A,,(3(E,/A,/^C/E)!ped-up! | .A,,.[B,DE].E, | A,,(3(E,/A,/^C/E) | z B,D |!ped! z E,2!ped-up! | %126
 .D,/.F,/.G,.B, |!ped! z E,2!ped-up! | (3(D,/E,/F,/ (3G,/A,/B,/ (3C/B,/A,/) |!ped! z E,2!ped-up! | %130
 .D,/.E,/.F,/.G,/.A,/.B,/ | .G,/.A,/.F,/.G,/.E,/.F,/ | .D,/.E,/.C,/.D,/.B,,/.C,/ | %133
!ped! z E,2!ped-up! | (3(D,/E,/F,/"_dim." (3G,/A,/B,/ (3C/B,/A,/) | %135
 (3(D,/E,/F,/ (3G,/A,/B,/ (3C/B,/A,/) | (3(D,/E,/F,/ (3G,/A,/B,/ (3C/B,/A,/) | %137
!ped! A,,(3(E,/A,/^C/.E)!ped-up! | .A,,.B,.E, |!ped! A,,(3(E,/A,/^C/.E)!ped-up! | .A,,.[B,DG].E, | %141
!ped! A,,(3(E,/A,/^C/.E)!ped-up! |!ped! z B,D!ped-up! |!ped! z E,2!ped-up! | %144
!ped! A,,.E,.B,!ped-up! |!ped! A,,(3(E,/A,/D/.E)!ped-up! |!ped! z B,D!ped-up! | %147
!ped! z E,2!ped-up! |!ped! A,,.E,.B,!ped-up! |!ped! A,,(3(E,/A,/D/.E)!ped-up! | %150
!ped! (A,,D,F,)!ped-up! |!ped! z E,2!ped-up! | .F,/z/.G,/z/.E,/ z/ |!ped! z E,2!ped-up! | %154
 .F,/z/.G,/z/.E,/ z/ |!ped! z E,2!ped-up! | (3(D,/E,/F,/ (3G,/A,/B,/ (3C/B,/A,/) | %157
!ped! z E,2!ped-up! | .F,/z/.G,/z/.E,/ z/ |!ped! z E,2!ped-up! | %160
 (3(D,/E,/F,/ (3G,/A,/B,/ (3C/B,/A,/) | (3(D,/E,/F,/ (3G,/A,/B,/ (3C/B,/A,/) | %162
 (3(D,/E,/F,/ (3G,/A,/B,/ (3C/B,/A,/) ||[M:4/4] (A,,2 E,2 ^C4 | %164
[K:treble] !arpeggio!!fermata![Ae^c']8) |] %165
V:3
 x6 |[M:3/8] A,,3 | x3 | A,,3 | x3 | A,,3 | x3 | A,,3 | x3 | A,,3 | x3 | x3 | x3 | A,,3 | x3 | %15
 A,,3 | x3 | A,,3 | x3 | x3 | x3 | A,,3 | x3 | A,,3 | x3 | x3 | x3 | x3 | x3 | x3 | A,, [D,F,]2 | %31
 A,,3 | x3 | A,,3 | x3 | A,,3 | x3 | x3 | x3 | A,,3 | x3 | x3 | x3 | x3 | x3 | x3 | x3 | x3 | %48
 A,, [D,F,]2 | A,,3 | A,,3 | x3 | A,, [D,F,]2 | A,,3 | A,,3 | x3 | x3 | A,,3 | x3 | A,,3 | x3 | %61
 A,,3 | x3 | A,,3 | x3 | A,,3 | x3 | x3 | x3 |[M:4/4] x8 |[K:treble] x8 ||[M:3/8][K:bass] x3 | x3 | %73
 x3 | x3 | x3 | x3 | x3 | x3 | x3 | x3 | x3 | x3 | x3 | x3 | x3 | x3 | x3 | x3 | x3 | x3 | x3 | %92
 x3 | x3 | x9 | A,,3 | x3 | A,,3 | x3 | A,,3 | x3 | A,,3 | x3 | A,,3 | x3 | x3 | x3 | A,,3 | x3 | %109
 A,,3 | x3 | A,,3 | x3 | x3 | x3 | A,,3 | x3 | A,,3 | x3 | x3 | x3 | x3 | x3 | x3 | A,, [D,F,]2 | %125
 A,,3 | x3 | A,,3 | x3 | A,,3 | x3 | x3 | x3 | A,,3 | x3 | x3 | x3 | x3 | x3 | x3 | x3 | x3 | %142
 A,, [D,F,]2 | A,,3 | A,,3 | x3 | A,, [D,F,]2 | A,,3 | A,,3 | x3 | x3 | A,,3 | x3 | A,,3 | x3 | %155
 A,,3 | x3 | A,,3 | x3 | A,,3 | x3 | x3 | x3 ||[M:4/4] x8 |[K:treble] x8 |] %165
V:4
 x6 |[M:3/8] x3 | x3 | x3 | x3 | x3 | x3 | x3 | x3 | x3 | x3 | x3 | x3 | x3 | x3 | x3 | x3 | x3 | %18
 x3 | x3 | x3 | x3 | x3 | x3 | x3 | x3 | x3 | x3 | x3 | x3 | x3 | x3 | x3 | x3 | x3 | x3 | x3 | %37
 x3 | x3 | x3 | x3 | x3 | x3 | x3 | x3 | x3 | x3 | x3 | x3 | x3 | x3 | x3 | x3 | x3 | x3 | x3 | %56
 x3 | x3 | x3 | x3 | x3 | x3 | x3 | x3 | x3 | x3 | x3 | x3 | x3 |[M:4/4] x8 | x8 ||[M:3/8] x3 | %72
 x3 | x3 | F/.[A,C]/!p! z/ .[A,C]/z/.[A,C]/ | F/.[A,C]/ z/ .[A,C]/z/.[A,C]/ | c/[FA]/ z f/[FA]/ | %77
 f z/4 .A3/4- A | d/[FB]/ z/ [FB]/z/[FB]/ | d/[FB]/ z/ [FB]/z/[FB]/ | c/[FA]/ z f/[FA]/ | %81
 f z/4 .B3/4- B | f/[FA]/- [FA]2 | F/.[A,D]/ z/ .[A,D]/z/.[A,D]/ | c/[FA]/ z/ [FA]/z/[FA]/ | %85
 z/ [FA]/z/[FA]/-[FA] | z/ [EB]/z/[EB]/- [EB] | c/[EA]/ z/ [EA]/z/[EA]/ | c/[FA]/ z f/[FA]/ | %89
 f/[EB]/ z/ [EB]/-[EB] | d/[FA]/ z/ [FA]/ z | F/.[A,D]/ z/ .[A,D]/z/.[A,D]/ | c/[FA]/ z f/[FA]/ | %93
 f/[EB]/ z2 | x9 | x3 | x3 | x3 | x3 | x3 | x3 | x3 | x3 | x3 | x3 | x3 | x3 | x3 | x3 | x3 | x3 | %111
 x3 | x3 | x3 | x3 | x3 | x3 | x3 | x3 | x3 | x3 | x3 | x3 | x3 | x3 | x3 | x3 | x3 | x3 | x3 | %130
 x3 | x3 | x3 | x3 | x3 | x3 | x3 | x3 | x3 | x3 | x3 | x3 | x3 | x3 | x3 | x3 | x3 | x3 | x3 | %149
 x3 | x3 | x3 | x3 | x3 | x3 | x3 | x3 | x3 | x3 | x3 | x3 | x3 | x3 ||[M:4/4] x8 | x8 |] %165

